X: 5
T: The Road To Cashel
R: reel
M: 4/4
L: 1/8
K: Emin
|:FEED E2EG|FEE2 DFAB|FEED B,EGE|FD (3DDD FABA|
FEED E2EG|FEE2 DFAB|FE (3EEE EFGE|FADF ADFA:|
|:B3B d (3efg fe|defa afed|B3B gf2f|dBAd BE2E|
BABd e^def|dfab adfa|bf2f af2f|bfaf edBA| FEDE2:|


Tune 3270	Setting 3270

